!!!COM: Scriabin, Alexander
!!!OTL@@FR: Mazurka
!!!OTL@@EN:
!!!OPR@@FR: 10 Mazurkas for piano
!!!OPR@@EN:
!!!OPS: 3
!!!ONM: 5
!!!ODT: 1888–1889
!!!AGN: Mazurka
**kern	**kern	**dynam
*staff2	*staff1	*staff1/2
*Ipiano	*Ipiano	*
*clefF4	*clefG2	*
*k[f#c#g#d#a#e#]	*k[f#c#g#d#a#e#]	*
*d#:	*d#:	*
*M3/4	*M3/4	*
4r	4a#	.
=1	=1	=1
2.r	8g#L	.
.	8a#	.
.	8cc#	.
.	8b	.
.	8d#	.
.	8e#J	.
=2	=2	=2
*^	*^	*
2.ryy	8G##XL	4f#	4rc	.
.	8A#	.	.	.
.	8c#	4d#	[2d#	.
.	8B	.	.	.
.	8D#	4b	.	.
.	8E#J	.	.	.
=3	=3	=3	=3	=3
4rc	4F#	8a#L	2d#]	.
.	.	8b	.	.
4rc	4F##X	8dd#	.	.
.	.	8cc#	.	.
[4en	[4D#	8b	[4c# [4f##X	.
.	.	8a#J	.	.
=4	=4	=4	=4	=4
4e]	4D#]	4a#	4c#] 4f##]	.
4d#	4G#	4g#	4B	.
4rc	4rEE	4dd#	4rc	.
*v	*v	*	*	*
*	*v	*v	*
=5	=5	=5
2.r	8cc#L	.
.	8dd#	.
.	8ff#	.
.	8een	.
.	8g#	.
.	8a#J	.
=6	=6	=6
*^	*^	*
2.ryy	8c##XL	4b	4rc	.
.	8d#	.	.	.
.	8f#	4g#	[2g#	.
.	8en	.	.	.
.	8G#	4een	.	.
.	8A#J	.	.	.
=7	=7	=7	=7	=7
4rc	2B	4dd#	2g#]	.
4rc	.	8cc##XL	.	.
.	.	8dd#J	.	.
[4e#X	[4B	8.ee#XL	[4g##X	.
.	.	16dd#Jk	.	.
=8	=8	=8	=8	=8
4e#]	4B]	4dd#	4g##]	.
4e#	4A#	4cc##X	4a#	.
4en	4A#	[4cc#X	4g#X	.
*	*	*v	*v	*
=9	=9	=9	=9
4rc	4D#	8cc#L]	.
.	.	8dd#	.
2g#	4A#	8ff#	.
.	.	8een	.
.	4c#	8g#	.
.	.	8a#J	.
=10	=10	=10	=10
*	*	*^	*
4rc	2.D#	2.b	8g#L	.
.	.	.	8f##X	.
2B 2en	.	.	8g#	.
.	.	.	8f#X	.
.	.	.	8g#	.
.	.	.	8enJ	.
=11	=11	=11	=11	=11
8enL	2.D# 2.A#	8cc#L	4g#	.
8d#J	.	8dd#	.	.
4c#	.	8een	2f##X	.
.	.	8f##	.	.
4a#	.	8dd#	.	.
.	.	8cc##XJ	.	.
*v	*v	*	*	*
*	*v	*v	*
=12	=12	=12
4GG#	8cc#XL	.
.	8en	.
4C# [4B 4en	8b	.
.	8a#J	.
8D# 8B] 8d#	4g#	.
8FF#	.	.
=13	=13	=13
4EE#X	8g#L	.
.	8a#	.
4D# 4B 4g#	8b	.
.	8d#	.
4r	8a#	.
.	8g#J	.
=14	=14	=14
4FF#	8f#L	.
.	8g#	.
4D# 4B 4f#	8a#	.
.	8d#	.
4r	8g#	.
.	8f#J	.
=15	=15	=15
4GG#	8e#L	.
.	8f#	.
4E# 4B	8g#	.
.	8f#	.
4GG##X 4F# 4B	8e#	.
.	8d#J	.
=16	=16	=16
*^	*	*
4F# 4d#	2AA#	8.cc#L	.
.	.	16bJk	.
4E# 4c##X	.	4a#	.
4rc	4rEE	4a#	.
*v	*v	*	*
=17	=17	=17
2.r	8g#L	.
.	8a#	.
.	8cc#	.
.	8b	.
.	8d#	.
.	8e#J	.
=18	=18	=18
*^	*^	*
2.ryy	8G##XL	4f#	4rc	.
.	8A#	.	.	.
.	8c#	4d#	[2d#	.
.	8B	.	.	.
.	8D#	4b	.	.
.	8E#J	.	.	.
=19	=19	=19	=19	=19
4rc	4F#	8a#L	2d#]	.
.	.	8b	.	.
4rc	4F##X	8dd#	.	.
.	.	8cc#	.	.
[4en	[4D#	8b	[4c# [4f##X	.
.	.	8a#J	.	.
=20	=20	=20	=20	=20
4e]	4D#]	4a#	4c#] 4f##]	.
4d#	4G#	4g#	4B	.
4rc	4rEE	4dd#	4rc	.
*v	*v	*	*	*
*	*v	*v	*
=21	=21	=21
2.r	8cc#L	.
.	8dd#	.
.	8ff#	.
.	8een	.
.	8g#	.
.	8a#J	.
=22	=22	=22
*^	*^	*
2.ryy	8c##XL	4b	4rc	.
.	8d#	.	.	.
.	8f#	4g#	[2g#	.
.	8en	.	.	.
.	8G#	4een	.	.
.	8A#J	.	.	.
=23	=23	=23	=23	=23
2.ryy	2B	4dd#	2g#]	.
.	.	8cc##XL	.	.
.	.	8dd#J	.	.
.	4B#X	8.gg#L	4g# 4dd#	.
.	.	16ff#Jk	.	.
=24	=24	=24	=24	=24
2.ryy	2c#	4ff#	2g# 2bn	.
.	.	4ee#	.	.
.	4c#	[4een	4gn 4b	.
*	*	*v	*v	*
=25	=25	=25	=25
4rc	4F#	8ee#L	.
.	.	8ff#	.
2b	4c#	8aan	.
.	.	8ggn	.
.	4en	8b	.
.	.	8cc#J	.
=26	=26	=26	=26
*	*	*^	*
4rc	2.F#	2.ddn	8bL	.
.	.	.	8a#X	.
2dn 2gn	.	.	8b	.
.	.	.	8an	.
.	.	.	8b	.
.	.	.	8gnJ	.
=27	=27	=27	=27	=27
8gnL	2.F# 2.c#	8eenL	4b	.
8f#J	.	8ff#	.	.
4en	.	8ggn	2a#X	.
.	.	8a#	.	.
*clefG2	*	*	*	*
4cc#	.	8ff#	.	.
.	.	8ee#XJ	.	.
*v	*v	*	*	*
*	*v	*v	*
*clefF4	*	*
=28	=28	=28
4BB	8eenL	.
.	8f##X	.
4F##X [4d# 4f##X	8dd#	.
.	8cc#	.
8G# 8d#] 8g#	8b	.
8FF#X	[8g#J	.
=29	=29	=29
4EE#X	8g#L]	.
.	8a#	.
4D# 4B 4g#	8b	.
.	8d#	.
8r	8a#	.
8EE#	8g#J	.
=30	=30	=30
4FF#	8f#L	.
.	8g#	.
4D# 4B 4f#	8a#	.
.	8d#	.
8r	8g#	.
8FF#	8f#J	.
=31	=31	=31
4GG#	8e#L	.
.	8f#	.
4E# 4B	8g#	.
.	8f#	.
4GG##X 4F# 4B	8e#	.
.	8d#J	.
=32	=32	=32
*	*^	*
[4AA#	8f#L	4G# 4c##X	.
.	8e#J	.	.
2DD# 2AA#]	4F# 4d#	4rc	.
*	*clefF4	*	*
.	4A#	4rEE	.
=33	=33	=33	=33
4DD# 4AA#	4B	8A#L	.
.	.	8G#	.
2DD# 2AA#	4B#X	8F#	.
.	.	8A#	.
.	4c##X	8E#	.
.	.	8A#J	.
=34	=34	=34	=34
4DD# 4GG# 4G#	4d#	8BnL	.
.	.	8F#	.
2DD# 2GG# 2G#	4e#	8E#	.
.	.	8B	.
.	4f#	8D#	.
.	.	8A#J	.
=35	=35	=35	=35
4DD# 4GG##X 4G##X	4f#	8BL	.
.	.	8D#	.
2DD# 2GG## 2G##	4e#	8E#	.
.	.	8B	.
.	4d#	8F#	.
.	.	8BJ	.
=36	=36	=36	=36
2DD# 2AA# 2A#	12d#L	2F#	.
.	12c##X	.	.
.	12d#J	.	.
.	4a#	.	.
*	*clefG2	*	*
4r	4d#	4rc	.
=37	=37	=37	=37
4DD# 4D#	4en	8d#L	.
.	.	8c#X	.
2DD# 2D#	4e#X	8B	.
.	.	8d#	.
.	4f##X	8A#	.
.	.	8d#J	.
=38	=38	=38	=38
*^	*	*	*
4GG# 4B	4C##X	4g#	8enL	.
.	.	.	8B	.
2GG# 2B	4.C##	4a#	8A#	.
.	.	.	8e	.
.	.	4b	8G#	.
.	8D#	.	8d#J	.
*v	*v	*	*	*
*	*v	*v	*
=39	=39	=39
2.AA# 2.G# 2.c##X	8c##XL	.
.	8a#	.
.	8b	.
.	8B	.
.	8f#	.
.	8e#XJ	.
=40	=40	=40
*^	*^	*
2GG##X	2.DD#	8.d#L	2F#	.
.	.	16c#XJk	.	.
.	.	4B	.	.
*	*	*clefF4	*	*
4AA#	.	4A#	4rEE	.
*v	*v	*	*	*
=41	=41	=41	=41
4DD# 4AA#	4B	8A#L	.
.	.	8G#	.
2DD# 2AA#	4B#X	8F#	.
.	.	8A#	.
.	4c##X	8E#	.
.	.	8A#J	.
=42	=42	=42	=42
4DD# 4GG# 4G#	4d#	8BnL	.
.	.	8F#	.
2DD# 2GG# 2G#	4e#	8E#	.
.	.	8B	.
.	4f#	8D#	.
.	.	8A#J	.
=43	=43	=43	=43
4DD# 4GG##X 4G##X	4f#	8BL	.
.	.	8D#	.
2DD# 2GG## 2G##	4e#	8E#	.
.	.	8B	.
.	4d#	8F#	.
.	.	8BJ	.
=44	=44	=44	=44
2DD# 2AA# 2A#	12d#L	2F#	.
.	12c##X	.	.
.	12d#J	.	.
.	4a#	.	.
*	*clefG2	*	*
4r	4d#	4rc	.
=45	=45	=45	=45
4DD# 4D#	4en	8d#L	.
.	.	8c#X	.
2DD# 2D#	4e#X	8B	.
.	.	8d#	.
.	4f##X	8A#	.
.	.	8d#J	.
=46	=46	=46	=46
*^	*	*^	*
4GG# 4B	4C##X	4g#	8enL	4r	.
.	.	.	8B	.	.
2GG# 2B	4.C##	4a#	8A#	4r	.
.	.	.	8e	.	.
.	.	4b	8G#	4g#/	.
.	8D#	.	8d#J	.	.
*v	*v	*	*	*	*
=47	=47	=47	=47	=47
4GG# 4G#	2.ryy	8g#L	4an/	.
.	.	8f#	.	.
2GG# 2G#	.	8en	4a#X/	.
.	.	8g#	.	.
.	.	8d#	4b#X\	.
.	.	8g#J	.	.
=48	=48	=48	=48	=48
*^	*	*	*	*
4C# 4en	4F##X	2.ryy	8anL	4cc#\	.
.	.	.	8en	.	.
2C# 2e	4.F##	.	8d#	4dd#\	.
.	.	.	8a	.	.
.	.	.	8c#	4een\	.
.	8G#	.	8g#J	.	.
*v	*v	*	*	*	*
*	*v	*v	*v	*
=49	=49	=49
2.D# 2.B 2.g#	8dd#L	.
.	8f##X	.
.	8g#	.
.	8a#X	.
.	8b	.
.	8cc#J	.
=50	=50	=50
4D# 4c#X 4f##X	8cc##XL	.
.	8dd#	.
4r	8ff#X	.
.	8een	.
4r	8dd#	.
.	8bJ	.
=51||	=51||	=51||
*k[f#c#g#d#a#]	*k[f#c#g#d#a#]	*
*^	*^	*
4rc	4rEE	2.ryy	2.g#	.
2B	4D#	.	.	.
.	4C#	.	.	.
=52	=52	=52	=52	=52
4rc	4rEE	2.ryy	[2.d#	.
2G#	4C#	.	.	.
.	4BB	.	.	.
=53	=53	=53	=53	=53
4rc	4rEE	[2.cc#	2.d#]	.
2G#	4BB	.	.	.
.	4AA#	.	.	.
=54	=54	=54	=54	=54
4rc	4rEE	4cc#]	[2.d#	.
2F##X	4D#	4b	.	.
.	4C#	4a#	.	.
=55	=55	=55	=55	=55
4rc	4rEE	[2.dd#	2.d#]	.
2G#	4C#	.	.	.
.	4BB	.	.	.
=56	=56	=56	=56	=56
4rc	4rEE	4dd#]	[2.d#	.
2G#	4AA#	4cc#	.	.
.	4GG#	4b	.	.
=57	=57	=57	=57	=57
4rc	4rEE	2.b	2.d#_	.
4G#	2D#	.	.	.
4E#X	.	.	.	.
=58	=58	=58	=58	=58
4rc	4rEE	2.a#	2.d#]	.
4F##X	2D#	.	.	.
4DD#	.	.	.	.
=59	=59	=59	=59	=59
4rc	4rEE	2.ryy	2.g#	.
2B	4D#	.	.	.
.	4C#	.	.	.
=60	=60	=60	=60	=60
4rc	4rEE	2.ryy	[2.d#	.
2G#	4C#	.	.	.
.	4BB	.	.	.
=61	=61	=61	=61	=61
4rc	4rEE	[2.cc#	2.d#]	.
2G#	4BB	.	.	.
.	4AA#	.	.	.
=62	=62	=62	=62	=62
4rc	4rEE	4cc#]	[2.d#	.
2F##X	4D#	4b	.	.
.	4C#	4a#	.	.
=63	=63	=63	=63	=63
4rc	4rEE	2.dd#	2.d#]	.
2G#	4C#	.	.	.
.	4BB#X	.	.	.
*v	*v	*	*	*
=64	=64	=64	=64
8GG#L	4raa	2.f# 2.b#X	.
8G#	.	.	.
8An	4ee	.	.
8D#J	.	.	.
4f#	4dd#	.	.
=65	=65	=65	=65
8C#L	4raa	2.e	.
8G#	.	.	.
8An	4dd#	.	.
8EJ	.	.	.
4e	4cc#	.	.
=66	=66	=66	=66
8FF#L	4raa	2.e 2.a#X	.
8F#	.	.	.
8Gn	4dd#	.	.
8C#J	.	.	.
4e	4cc#	.	.
=67	=67	=67	=67
8BBL	4raa	2.d#	.
8F##X	.	.	.
8G#	4cc#	.	.
8D#J	.	.	.
4d#	4b	.	.
=68	=68	=68	=68
8C#L	4raa	2.e	.
8G#	.	.	.
8An	4b	.	.
8EJ	.	.	.
4e	4an	.	.
=69	=69	=69	=69
8C##XL	4raa	2.e	.
8A#X	.	.	.
8B	4an	.	.
8EJ	.	.	.
4e	4g#	.	.
*	*v	*v	*
=70	=70	=70
*^	*	*
4rc	2.D# 2.B	8g#L	.
.	.	8f##X	.
4rc	.	8g#	.
.	.	8a#X	.
4g#	.	8b	.
.	.	8cc#J	.
*v	*v	*	*
=71	=71	=71
4D# 4c#X 4f##X	8cc##XL	.
.	8dd#	.
4r	8ff#X	.
.	8ee	.
4r	8dd#	.
.	8bJ	.
=72	=72	=72
*^	*^	*
4rc	4rEE	2.ryy	2.g#	.
2B	4D#	.	.	.
.	4C#	.	.	.
=73	=73	=73	=73	=73
4rc	4rEE	2.ryy	[2.d#	.
2G#	4C#	.	.	.
.	4BB	.	.	.
=74	=74	=74	=74	=74
4rc	4rEE	[2.cc#	2.d#]	.
2G#	4BB	.	.	.
.	4AA#	.	.	.
=75	=75	=75	=75	=75
4rc	4rEE	4cc#]	[2.d#	.
2F##X	4D#	4b	.	.
.	4C#	4a#	.	.
=76	=76	=76	=76	=76
4rc	4rEE	[2.dd#	2.d#]	.
2G#	4C#	.	.	.
.	4BB	.	.	.
=77	=77	=77	=77	=77
4rc	4rEE	4dd#]	[2.d#	.
2G#	4AA#	4cc#	.	.
.	4GG#	4b	.	.
=78	=78	=78	=78	=78
4rc	4rEE	2.b	2.d#_	.
4G#	2D#	.	.	.
4E#X	.	.	.	.
=79	=79	=79	=79	=79
4rc	4rEE	2.a#	2.d#]	.
4F##X	2D#	.	.	.
4DD#	.	.	.	.
=80	=80	=80	=80	=80
4rc	4rEE	2.ryy	2.g#	.
2B	4D#	.	.	.
.	4C#	.	.	.
=81	=81	=81	=81	=81
4rc	4rEE	2.ryy	[2.d#	.
2G#	4C#	.	.	.
.	4BB	.	.	.
=82	=82	=82	=82	=82
4rc	4rEE	[2.cc#	2.d#]	.
2G#	4BB	.	.	.
.	4AA#	.	.	.
=83	=83	=83	=83	=83
4rc	4rEE	4cc#]	[2.d#	.
2F##X	4D#	4b	.	.
.	4C#	4a#	.	.
=84	=84	=84	=84	=84
4rc	4rEE	2.dd#	2.d#]	.
2G#	4C#	.	.	.
.	4BB#X	.	.	.
*v	*v	*	*	*
=85	=85	=85	=85
8GG#L	4raa	2.f# 2.b#X	.
8G#	.	.	.
8An	4ee	.	.
8D#J	.	.	.
4f#	4dd#	.	.
=86	=86	=86	=86
8C#L	4raa	2.e	.
8G#	.	.	.
8An	4dd#	.	.
8EJ	.	.	.
4e	4cc#	.	.
=87	=87	=87	=87
8FF#L	4raa	2.e 2.a#X	.
8F#	.	.	.
8Gn	4dd#	.	.
8C#J	.	.	.
4e	4cc#	.	.
=88	=88	=88	=88
8BBL	4raa	2.d#	.
8F##X	.	.	.
8G#	4cc#	.	.
8D#J	.	.	.
4d#	4b	.	.
=89	=89	=89	=89
8DD#L	4raa	2.c# 2.f##X	.
8D#	.	.	.
8E	4b	.	.
8AA#J	.	.	.
4c#	4a#	.	.
=90	=90	=90	=90
8GG#L	4raa	2.B	.
8D#	.	.	.
8E	4a#	.	.
8BBJ	.	.	.
4B	4g#	.	.
=91	=91	=91	=91
2.AAA# 2.AA#	4raa	2.G# 2.c##X	.
.	4f#	.	.
.	4e#X	.	.
*	*v	*v	*
=92	=92	=92
2.r	4a#	.
.	4.b	.
.	8a#X	.
=93||	=93||	=93||
*k[f#c#g#d#a#e#]	*k[f#c#g#d#a#e#]	*
2.r	8g#L	.
.	8a#	.
.	8cc#	.
.	8b	.
.	8d#	.
.	8e#J	.
=94	=94	=94
*^	*^	*
2.ryy	8G##XL	4f#	4rc	.
.	8A#	.	.	.
.	8c#	4d#	[2d#	.
.	8B	.	.	.
.	8D#	4b	.	.
.	8E#J	.	.	.
=95	=95	=95	=95	=95
4rc	4F#	8a#L	2d#]	.
.	.	8b	.	.
4rc	4F##X	8dd#	.	.
.	.	8cc#	.	.
[4en	[4D#	8b	[4c# [4f##X	.
.	.	8a#J	.	.
=96	=96	=96	=96	=96
4e]	4D#]	4a#	4c#] 4f##]	.
4d#	4G#	4g#	4B	.
4rc	4rEE	4dd#	4rc	.
*v	*v	*	*	*
*	*v	*v	*
=97	=97	=97
2.r	8cc#L	.
.	8dd#	.
.	8ff#	.
.	8een	.
.	8g#	.
.	8a#J	.
=98	=98	=98
*^	*^	*
2.ryy	8c##XL	4b	4rc	.
.	8d#	.	.	.
.	8f#	4g#	[2g#	.
.	8en	.	.	.
.	8G#	4een	.	.
.	8A#J	.	.	.
=99	=99	=99	=99	=99
4rc	2B	4dd#	2g#]	.
4rc	.	8cc##XL	.	.
.	.	8dd#J	.	.
[4e#X	[4B	8.ee#XL	[4g##X	.
.	.	16dd#Jk	.	.
=100	=100	=100	=100	=100
4e#]	4B]	4dd#	4g##]	.
4e#	4A#	4cc##X	4a#	.
4en	4A#	[4cc#X	4g#X	.
*	*	*v	*v	*
=101	=101	=101	=101
4rc	4D#	8cc#L]	.
.	.	8dd#	.
2g#	4A#	8ff#	.
.	.	8een	.
.	4c#	8g#	.
.	.	8a#J	.
=102	=102	=102	=102
*	*	*^	*
4rc	2.D#	2.b	8g#L	.
.	.	.	8f##X	.
2B 2en	.	.	8g#	.
.	.	.	8f#X	.
.	.	.	8g#	.
.	.	.	8enJ	.
=103	=103	=103	=103	=103
8enL	2.D# 2.A#	8cc#L	4g#	.
8d#J	.	8dd#	.	.
4c#	.	8een	2f##X	.
.	.	8f##	.	.
4a#	.	8dd#	.	.
.	.	8cc##XJ	.	.
*v	*v	*	*	*
*	*v	*v	*
=104	=104	=104
4GG#	8cc#XL	.
.	8en	.
4C# [4B 4en	8b	.
.	8a#J	.
8D# 8B] 8d#	4g#	.
8FF#X	.	.
=105	=105	=105
4EE#X	8g#L	.
.	8a#	.
4D# 4B 4g#	8b	.
.	8d#	.
4r	8a#	.
.	8g#J	.
=106	=106	=106
4FF#	8f#L	.
.	8g#	.
4D# 4B 4f#	8a#	.
.	8d#	.
4r	8g#	.
.	8f#J	.
=107	=107	=107
4GG#	8e#L	.
.	8f#	.
4E# 4B	8g#	.
.	8f#	.
4GG##X 4F# 4B	8e#	.
.	8d#J	.
=108	=108	=108
*^	*	*
4F# 4d#	2AA#	8.cc#L	.
.	.	16bJk	.
4E# 4c##X	.	4a#	.
4rc	4rEE	4a#	.
*v	*v	*	*
=109	=109	=109
2.r	8g#L	.
.	8a#	.
.	8cc#	.
.	8b	.
.	8d#	.
.	8e#J	.
=110	=110	=110
*^	*^	*
2.ryy	8G##XL	4f#	4rc	.
.	8A#	.	.	.
.	8c#	4d#	[2d#	.
.	8B	.	.	.
.	8D#	4b	.	.
.	8E#J	.	.	.
=111	=111	=111	=111	=111
4rc	4F#	8a#L	2d#]	.
.	.	8b	.	.
4rc	4F##X	8dd#	.	.
.	.	8cc#	.	.
[4en	[4D#	8b	[4c# [4f##X	.
.	.	8a#J	.	.
=112	=112	=112	=112	=112
4e]	4D#]	4a#	4c#] 4f##]	.
4d#	4G#	4g#	4B	.
4rc	4rEE	4dd#	4rc	.
*v	*v	*	*	*
*	*v	*v	*
=113	=113	=113
2.r	8cc#L	.
.	8dd#	.
.	8ff#	.
.	8een	.
.	8g#	.
.	8a#J	.
=114	=114	=114
*^	*^	*
2.ryy	8c##XL	4b	4rc	.
.	8d#	.	.	.
.	8f#	4g#	[2g#	.
.	8en	.	.	.
.	8G#	4een	.	.
.	8A#J	.	.	.
=115	=115	=115	=115	=115
2.ryy	2B	4dd#	2g#]	.
.	.	8cc##XL	.	.
.	.	8dd#J	.	.
.	4B#X	8.gg#L	4g# 4dd#	.
.	.	16ff#Jk	.	.
=116	=116	=116	=116	=116
2.ryy	2c#	4ff#	2g# 2bn	.
.	.	4ee#	.	.
.	4c#	[4een	4gn 4b	.
*	*	*v	*v	*
=117	=117	=117	=117
4rc	4F#	8eeL]	.
.	.	8ff#	.
2b	4c#	8aan	.
.	.	8ggn	.
.	4en	8b	.
.	.	8cc#J	.
=118	=118	=118	=118
*	*	*^	*
4rc	2.F#	2.ddn	8bL	.
.	.	.	8a#X	.
2dn 2gn	.	.	8b	.
.	.	.	8an	.
.	.	.	8b	.
.	.	.	8gnJ	.
=119	=119	=119	=119	=119
8gnL	2.F# 2.c#	8eenL	4b	.
8f#J	.	8ff#	.	.
4en	.	8ggn	2a#X	.
.	.	8a#	.	.
*clefG2	*	*	*	*
4cc#	.	8ff#	.	.
.	.	8ee#XJ	.	.
*v	*v	*	*	*
*	*v	*v	*
*clefF4	*	*
=120	=120	=120
4BB	8eenL	.
.	8f##X	.
4F##X [4d# 4f##X	8dd#	.
.	8cc#	.
8G# 8d#] 8g#	8b	.
8FF#X	[8g#J	.
=121	=121	=121
4EE#X	8g#L]	.
.	8a#	.
4D# 4B 4g#	8b	.
.	8d#	.
8r	8a#	.
8EE#	8g#J	.
=122	=122	=122
4FF#	8f#L	.
.	8g#	.
4D# 4B 4f#	8a#	.
.	8d#	.
8r	8g#	.
8FF#	8f#J	.
=123	=123	=123
4GG#	8e#L	.
.	8f#	.
4E# 4B	8g#	.
.	8f#	.
4GG##X 4F# 4B	8e#	.
.	8d#J	.
=124	=124	=124
*	*^	*
[4AA#	8f#L	4G# 4c##X	.
.	8e#J	.	.
2DD# 2AA#]	4F# 4d#	4rc	.
*	*clefF4	*	*
.	4A#	4rEE	.
=125	=125	=125	=125
4DD# 4AA#	4B	8A#L	.
.	.	8G#	.
2DD# 2AA#	4B#X	8F#	.
.	.	8A#	.
.	4c##X	8E#	.
.	.	8A#J	.
=126	=126	=126	=126
4DD# 4GG# 4G#	4d#	8BnL	.
.	.	8F#	.
2DD# 2GG# 2G#	4e#	8E#	.
.	.	8B	.
.	4f#	8D#	.
.	.	8A#J	.
=127	=127	=127	=127
4DD# 4GG##X 4G##X	4f#	8BL	.
.	.	8D#	.
2DD# 2GG## 2G##	4e#	8E#	.
.	.	8B	.
.	4d#	8F#	.
.	.	8BJ	.
=128	=128	=128	=128
2DD# 2AA# 2A#	12d#L	2F#	.
.	12c##X	.	.
.	12d#J	.	.
.	4a#	.	.
*	*clefG2	*	*
4r	4d#	4rc	.
=129	=129	=129	=129
4DD# 4D#	4en	8d#L	.
.	.	8c#X	.
2DD# 2D#	4e#X	8B	.
.	.	8d#	.
.	4f##X	8A#	.
.	.	8d#J	.
=130	=130	=130	=130
*^	*	*	*
4GG# 4B	4C##X	4g#	8enL	.
.	.	.	8B	.
2GG# 2B	4.C##	4a#	8A#	.
.	.	.	8e	.
.	.	4b	8G#	.
.	8D#	.	8d#J	.
*v	*v	*	*	*
*	*v	*v	*
=131	=131	=131
2.AA# 2.G# 2.c##X	8c##XL	.
.	8a#	.
.	8b	.
.	8B	.
.	8f#	.
.	8e#XJ	.
=132	=132	=132
*^	*^	*
2GG##X	2.DD#	8.d#L	2F#	.
.	.	16c#XJk	.	.
.	.	4B	.	.
*	*	*clefF4	*	*
4AA#	.	4A#	4rEE	.
*v	*v	*	*	*
=133	=133	=133	=133
4DD# 4AA#	4B	8A#L	.
.	.	8G#	.
2DD# 2AA#	4B#X	8F#	.
.	.	8A#	.
.	4c##X	8E#	.
.	.	8A#J	.
=134	=134	=134	=134
4DD# 4GG# 4G#	4d#	8BnL	.
.	.	8F#	.
2DD# 2GG# 2G#	4e#	8E#	.
.	.	8B	.
.	4f#	8D#	.
.	.	8A#J	.
=135	=135	=135	=135
4DD# 4GG##X 4G##X	4f#	8BL	.
.	.	8D#	.
2DD# 2GG## 2G##	4e#	8E#	.
.	.	8B	.
.	4d#	8F#	.
.	.	8BJ	.
=136	=136	=136	=136
2DD# 2AA# 2A#	12d#L	2F#	.
.	12c##X	.	.
.	12d#J	.	.
.	4a#	.	.
*	*clefG2	*	*
4r	4d#	4rc	.
=137	=137	=137	=137
4DD# 4D#	4en	8d#L	.
.	.	8c#X	.
2DD# 2D#	4e#X	8B	.
.	.	8d#	.
.	4f##X	8A#	.
.	.	8d#J	.
=138	=138	=138	=138
*^	*	*	*
4GG# 4B	4C##X	4g#	8enL	.
.	.	.	8B	.
2GG# 2B	4.C##	4a#	8A#	.
.	.	.	8e	.
.	.	4b	8G#	.
.	8D#	.	8d#J	.
*v	*v	*	*	*
*	*v	*v	*
=139	=139	=139
2.AA# 2.G# 2.c##X	8c##XL	.
.	8a#	.
.	8b	.
.	8B	.
.	8f#	.
.	8e#XJ	.
=140	=140	=140
*^	*^	*
4GG##X	2DD#	2d#	2F#	.
4AA#	.	.	.	.
4rc	4rEE	4d#	4rc	.
*v	*v	*	*	*
=141	=141	=141	=141
4DD# 4D#	4en	8d#L	.
.	.	8c#X	.
2DD# 2D#	4e#X	8B	.
.	.	8d#	.
.	4f##X	8A#	.
.	.	8d#J	.
=142	=142	=142	=142
*^	*	*	*
4GG# 4B	4C##X	4g#	8enL	.
.	.	.	8B	.
2GG# 2B	4.C##	4a#	8A#	.
.	.	.	8e	.
.	.	4b	8G#	.
.	8D#	.	8d#J	.
*v	*v	*	*	*
*	*v	*v	*
=143	=143	=143
2.AA# 2.G# 2.c##X	8c##XL	.
.	8a#	.
.	8b	.
.	8B	.
.	8f#	.
.	8e#XJ	.
=144	=144	=144
*	*^	*
4r	4e#	4rc	.
4DD# 4AA#	4d#	4F#	.
4F# 4A# 4d# 4f#	4dd# 4aa# 4ddd#	4rc	.
*	*v	*v	*
==	==	==
*-	*-	*-
!!!system-decoration: {(*)}
!!!ENC: Bryan Jacob Bell
!!!END: November 2021 to April 2022
!!!PED: Günter Philipp
!!!PTL: Ausgewählte Klavierwerke (Edition Peters)
